src/apps/scalable/linuxmint-logo-badge.svg

<?xml version="1.0" encoding="UTF-8" standalone="no"?>
<svg
   width="64"
   height="64"
   version="1.1"
   viewBox="0 0 16.933 16.933"
   id="svg20"
   sodipodi:docname="linuxmint-logo-badge.svg"
   inkscape:version="1.1.2 (1:1.1+202202050950+0a00cf5339)"
   xmlns:inkscape="http://www.inkscape.org/namespaces/inkscape"
   xmlns:sodipodi="http://sodipodi.sourceforge.net/DTD/sodipodi-0.dtd"
   xmlns:xlink="http://www.w3.org/1999/xlink"
   xmlns="http://www.w3.org/2000/svg"
   xmlns:svg="http://www.w3.org/2000/svg">
  <sodipodi:namedview
     id="namedview22"
     pagecolor="#505050"
     bordercolor="#eeeeee"
     borderopacity="1"
     inkscape:pageshadow="0"
     inkscape:pageopacity="0"
     inkscape:pagecheckerboard="0"
     showgrid="false"
     inkscape:zoom="12.984375"
     inkscape:cx="32"
     inkscape:cy="31.961492"
     inkscape:window-width="2560"
     inkscape:window-height="1358"
     inkscape:window-x="0"
     inkscape:window-y="0"
     inkscape:window-maximized="1"
     inkscape:current-layer="g18" />
  <defs
     id="defs10">
    <filter
       id="filter1178"
       x="-0.047999482"
       y="-0.047999482"
       width="1.095999"
       height="1.095999"
       color-interpolation-filters="sRGB">
      <feGaussianBlur
         stdDeviation="0.30691668"
         id="feGaussianBlur2" />
    </filter>
    <linearGradient
       inkscape:collect="always"
       xlink:href="#linearGradient828"
       id="linearGradient830"
       x1="263.23047"
       y1="291.69141"
       x2="262.86871"
       y2="375.27399"
       gradientUnits="userSpaceOnUse"
       gradientTransform="matrix(0.20328018,0,0,0.20328018,-45.042842,-59.295085)" />
    <linearGradient
       inkscape:collect="always"
       id="linearGradient828">
      <stop
         style="stop-color:#8fbcbb;stop-opacity:1"
         offset="0"
         id="stop930" />
      <stop
         style="stop-color:#97b67c;stop-opacity:1"
         offset="1"
         id="stop932" />
    </linearGradient>
  </defs>
  <g
     stroke-linecap="round"
     stroke-linejoin="round"
     id="g18">
    <rect
       x=".92604"
       y=".92604"
       width="15.081"
       height="15.081"
       rx="3"
       ry="3"
       fill="url(#linearGradient828)"
       stroke-width="1.2274"
       id="rect14"
       style="fill:none;fill-opacity:1" />
    <rect
       x=".01215"
       y=".0060174"
       width="16.924"
       height="16.927"
       fill="none"
       opacity=".15"
       stroke-width="1.052"
       id="rect16" />
    <path
       style="fill:url(#linearGradient830);fill-opacity:1;stroke:none;stroke-width:1.11375;stroke-miterlimit:4;stroke-dasharray:none;stroke-opacity:1"
       d="M 8.4666984,1.25e-6 A 8.4665603,8.4665603 0 0 0 2.4999998e-7,8.4666999 8.4665603,8.4665603 0 0 0 8.4666984,16.932999 8.4665603,8.4665603 0 0 0 16.933,8.4666999 8.4665603,8.4665603 0 0 0 8.4666984,1.25e-6 Z M 3.0785832,3.4637044 h 1.5396891 v 6.9270106 c 0,0.859288 0.68,1.539687 1.53929,1.539687 h 4.6182707 c 0.85929,0 1.539292,-0.680399 1.539292,-1.539687 V 6.5422867 c 0,-0.4342041 -0.335642,-0.7694481 -0.769845,-0.7694481 -0.4342,0 -0.769447,0.335244 -0.769447,0.7694481 V 10.390715 H 9.2361447 V 6.5422867 c 2e-6,-0.4342041 -0.3352431,-0.7694481 -0.7694463,-0.7694481 -0.4342032,0 -0.769844,0.335244 -0.769844,0.7694481 V 10.390715 H 6.1575623 V 6.5422867 c 0,-1.2661422 1.0429938,-2.3091364 2.3091361,-2.3091364 0.5915013,2.1e-6 1.1288003,0.2338254 1.5392906,0.6054744 0.410492,-0.371649 0.947792,-0.6054744 1.539291,-0.6054744 1.266144,2.1e-6 2.309137,1.0429942 2.309137,2.3091364 v 3.8484283 c -10e-7,1.691229 -1.387355,3.078977 -3.078584,3.078977 H 6.1575623 c -1.6912282,0 -3.0789791,-1.387748 -3.0789791,-3.078977 z"
       id="path1374-3"
       inkscape:connector-curvature="0" />
  </g>
</svg>

<?xml version="1.0" encoding="UTF-8"?>
<svg width="64" height="64" version="1.1" viewBox="0 0 16.933 16.933" xmlns="http://www.w3.org/2000/svg" xmlns:xlink="http://www.w3.org/1999/xlink">
 <defs>
  <linearGradient id="linearGradient830" x1="263.23" x2="262.87" y1="291.69" y2="375.27" gradientTransform="matrix(.20328 0 0 .20328 -45.043 -59.295)" gradientUnits="userSpaceOnUse">
   <stop stop-color="#8fbcbb" offset="0"/>
   <stop stop-color="#97b67c" offset="1"/>
  </linearGradient>
 </defs>
 <g stroke-linecap="round" stroke-linejoin="round">
  <rect x=".92604" y=".92604" width="15.081" height="15.081" rx="3" ry="3" fill="none" stroke-width="1.2274"/>
  <rect x=".01215" y=".0060174" width="16.924" height="16.927" fill="none" opacity=".15" stroke-width="1.052"/>
  <path d="m8.4667 1.25e-6a8.4666 8.4666 0 0 0-8.4667 8.4667 8.4666 8.4666 0 0 0 8.4667 8.4663 8.4666 8.4666 0 0 0 8.4663-8.4663 8.4666 8.4666 0 0 0-8.4663-8.4667zm-5.3881 3.4637h1.5397v6.927c0 0.85929 0.68 1.5397 1.5393 1.5397h4.6183c0.85929 0 1.5393-0.6804 1.5393-1.5397v-3.8484c0-0.4342-0.33564-0.76945-0.76984-0.76945-0.4342 0-0.76945 0.33524-0.76945 0.76945v3.8484h-1.5397v-3.8484c2e-6 -0.4342-0.33524-0.76945-0.76945-0.76945s-0.76984 0.33524-0.76984 0.76945v3.8484h-1.5393v-3.8484c0-1.2661 1.043-2.3091 2.3091-2.3091 0.5915 2.1e-6 1.1288 0.23383 1.5393 0.60547 0.41049-0.37165 0.94779-0.60547 1.5393-0.60547 1.2661 2.1e-6 2.3091 1.043 2.3091 2.3091v3.8484c-1e-6 1.6912-1.3874 3.079-3.0786 3.079h-4.6183c-1.6912 0-3.079-1.3877-3.079-3.079z" fill="url(#linearGradient830)"/>
 </g>
</svg>
